check-underline-circle.svg

<svg fill="currentColor" viewBox="0 0 24 24"><path d="M12 2A10 10 0 0 0 2 12a10 10 0 0 0 10 10 10 10 0 0 0 10-10A10 10 0 0 0 12 2m5 16H7v-2h10zm-6.7-4L7 10.7l1.4-1.4 1.9 1.9 5.3-5.3L17 7.3z"/></svg>

<svg  viewBox="0 0 24 24" fill="currentColor"><path  d="M12,2A10,10 0 0,0 2,12A10,10 0 0,0 12,22A10,10 0 0,0 22,12A10,10 0 0,0 12,2M17,18H7V16H17V18M10.3,14L7,10.7L8.4,9.3L10.3,11.2L15.6,5.9L17,7.3L10.3,14Z"/></svg>
